X: 21433
T: Kevin Broderick's
R: polka
M: 2/4
K: Adorian
AB|:c2 B>A|GEDE|G>GGE|G2 AB|
cBcd|edcB|A2 AB|1 A2 AB:|2 A2 Bd||
e2 Bd|e2 A>B|cd BA|G2 (3Bcd|
e2 (3Bcd|e2 e>f|ge fg|e2 e2|
aa/a/ aa|[M:3/4] ef g2 fe|[M:2/4] dB AB|G2 AB|
cBcd|edcB|A2 AB|A2||

